assets/logos/f1/astonmartin.svg

<?xml version="1.0" encoding="UTF-8"?>
<svg xmlns="http://www.w3.org/2000/svg" xmlns:xlink="http://www.w3.org/1999/xlink" width="64px" height="15px" viewBox="0 0 66 15" version="1.1">
<g id="surface1">
<path style=" stroke:none;fill-rule:nonzero;fill:rgb(0%,34.901962%,30.980393%);fill-opacity:1;" d="M 18.058594 2.457031 L 47.902344 2.457031 L 47.902344 7.507812 L 18.058594 7.507812 Z M 18.058594 2.457031 "/>
<path style=" stroke:none;fill-rule:nonzero;fill:rgb(100%,100%,100%);fill-opacity:1;" d="M 20.015625 5.386719 L 20.789062 5.386719 L 20.390625 4.359375 Z M 19.21875 6.378906 L 20.367188 3.667969 L 20.679688 3.667969 L 21.828125 6.378906 L 21.234375 6.378906 L 20.980469 5.691406 L 19.957031 5.691406 L 19.679688 6.378906 Z M 21.910156 6.257812 L 21.875 5.761719 C 22.128906 5.980469 22.40625 6.101562 22.683594 6.101562 C 22.839844 6.101562 22.960938 6.066406 23.058594 6.003906 C 23.191406 5.894531 23.214844 5.703125 23.117188 5.570312 C 23.105469 5.558594 23.105469 5.546875 23.09375 5.546875 C 22.996094 5.425781 22.816406 5.363281 22.40625 5.171875 C 22.03125 4.988281 21.851562 4.734375 21.851562 4.394531 C 21.851562 4.175781 21.949219 3.996094 22.105469 3.839844 C 22.441406 3.523438 23.035156 3.65625 23.09375 3.65625 C 23.214844 3.695312 23.3125 3.71875 23.410156 3.753906 L 23.445312 4.226562 C 23.335938 4.140625 23.226562 4.082031 23.105469 4.042969 C 22.730469 3.921875 22.335938 4.007812 22.335938 4.324219 C 22.335938 4.480469 22.429688 4.578125 22.648438 4.699219 C 23.117188 4.953125 23.359375 5.035156 23.515625 5.253906 C 23.734375 5.507812 23.734375 6.03125 23.394531 6.285156 C 23.214844 6.40625 22.996094 6.5 22.683594 6.5 C 22.320312 6.441406 22.042969 6.320312 21.910156 6.257812 Z M 24.496094 6.378906 L 24.496094 3.984375 C 24.277344 3.984375 24.023438 4.019531 23.6875 4.042969 L 23.722656 3.644531 L 25.796875 3.644531 L 25.835938 4.042969 C 25.402344 3.984375 25.148438 3.984375 25.027344 3.984375 L 25.027344 6.34375 L 24.496094 6.34375 Z M 27.1875 6.101562 C 27.621094 6.101562 27.996094 5.761719 27.996094 5.011719 C 27.996094 4.953125 27.996094 4.359375 27.621094 4.042969 C 27.5 3.949219 27.367188 3.921875 27.1875 3.921875 C 26.632812 3.921875 26.378906 4.457031 26.378906 5.011719 C 26.414062 5.761719 26.789062 6.101562 27.1875 6.101562 Z M 27.1875 6.441406 C 26.378906 6.441406 25.824219 5.847656 25.824219 5.035156 C 25.824219 4.203125 26.378906 3.632812 27.1875 3.632812 C 27.996094 3.632812 28.550781 4.191406 28.550781 5.035156 C 28.5625 5.847656 27.996094 6.441406 27.1875 6.441406 Z M 28.996094 6.378906 L 28.996094 3.667969 L 29.277344 3.667969 L 30.894531 5.507812 L 30.894531 3.667969 L 31.269531 3.667969 L 31.269531 6.378906 L 30.988281 6.378906 L 29.371094 4.539062 L 29.371094 6.378906 Z M 32.714844 6.378906 L 33.03125 3.667969 L 33.308594 3.667969 L 34.273438 5.570312 L 35.203125 3.667969 L 35.480469 3.667969 L 35.792969 6.378906 L 35.238281 6.378906 L 35.082031 4.699219 L 34.335938 6.257812 L 34.082031 6.257812 L 33.308594 4.699219 L 33.152344 6.34375 L 32.714844 6.34375 Z M 36.785156 5.386719 L 37.558594 5.386719 L 37.160156 4.359375 Z M 35.976562 6.378906 L 37.121094 3.667969 L 37.4375 3.667969 L 38.582031 6.378906 L 37.992188 6.378906 L 37.738281 5.691406 L 36.710938 5.691406 L 36.433594 6.378906 Z M 39.296875 4.890625 C 39.355469 4.890625 39.453125 4.929688 39.511719 4.929688 C 39.949219 4.929688 40.070312 4.675781 40.070312 4.457031 C 40.070312 4.117188 39.816406 3.984375 39.511719 3.984375 L 39.332031 3.984375 L 39.332031 4.890625 Z M 38.800781 6.417969 L 38.800781 3.707031 C 38.957031 3.667969 39.140625 3.667969 39.417969 3.667969 C 39.671875 3.667969 39.886719 3.707031 40.03125 3.765625 C 40.285156 3.863281 40.585938 4.042969 40.585938 4.457031 C 40.585938 4.613281 40.527344 4.769531 40.429688 4.929688 C 40.335938 5.050781 40.175781 5.144531 39.996094 5.207031 L 40.960938 6.417969 L 40.347656 6.417969 L 39.511719 5.265625 L 39.332031 5.265625 L 39.332031 6.417969 Z M 41.601562 6.378906 L 41.601562 3.984375 C 41.382812 3.984375 41.128906 4.019531 40.792969 4.042969 L 40.828125 3.644531 L 42.90625 3.644531 L 42.941406 4.042969 C 42.507812 3.984375 42.253906 3.984375 42.132812 3.984375 L 42.132812 6.34375 L 41.601562 6.34375 Z M 43.269531 3.667969 L 43.796875 3.667969 L 43.796875 6.378906 L 43.269531 6.378906 Z M 44.328125 6.378906 L 44.328125 3.667969 L 44.609375 3.667969 L 46.226562 5.507812 L 46.226562 3.667969 L 46.597656 3.667969 L 46.597656 6.378906 L 46.320312 6.378906 L 44.703125 4.539062 L 44.703125 6.378906 Z M 44.328125 6.378906 "/>
<path style=" stroke:none;fill-rule:nonzero;fill:rgb(0%,0%,0%);fill-opacity:1;" d="M 65.878906 0.5 C 65.699219 0.183594 65.347656 0 64.949219 0 L 38.34375 0 C 37.90625 0 37.21875 0 36.507812 0.714844 C 36.3125 0.910156 36.15625 1.128906 36.035156 1.371094 C 35.820312 1.769531 35.660156 2.058594 34.914062 2.058594 L 31.039062 2.058594 C 30.324219 2.058594 30.132812 1.78125 29.914062 1.371094 C 29.792969 1.152344 29.660156 0.933594 29.445312 0.714844 C 28.746094 0 28.054688 0 27.621094 0 L 1.050781 0 C 0.617188 0 0.277344 0.183594 0.121094 0.5 C -0.0585938 0.8125 -0.0351562 1.210938 0.179688 1.550781 L 0.652344 2.363281 C 0.90625 2.796875 1.242188 2.859375 1.484375 2.917969 C 1.703125 2.957031 1.859375 2.980469 2.015625 3.292969 L 2.449219 4.042969 C 2.789062 4.660156 3.164062 4.734375 3.441406 4.792969 C 3.65625 4.832031 3.875 4.855469 4.152344 5.351562 C 4.429688 5.847656 4.839844 6.597656 5.855469 6.914062 C 5.953125 6.949219 15.753906 9.804688 15.789062 9.804688 C 16.816406 10.144531 17.09375 10.519531 17.410156 10.992188 C 17.589844 11.269531 18.121094 12.019531 19.363281 12.359375 L 28.804688 14.914062 C 29.832031 15.191406 30.445312 14.695312 30.761719 14.417969 L 32.460938 12.796875 C 32.714844 12.578125 32.835938 12.480469 32.992188 12.480469 C 33.152344 12.480469 33.273438 12.578125 33.523438 12.796875 L 35.226562 14.417969 C 35.542969 14.671875 36.15625 15.167969 37.183594 14.914062 L 46.625 12.359375 C 47.890625 12.019531 48.398438 11.269531 48.578125 10.992188 C 48.894531 10.519531 49.171875 10.121094 50.195312 9.804688 C 50.195312 9.804688 60.011719 6.9375 60.132812 6.914062 C 61.121094 6.597656 61.558594 5.859375 61.835938 5.351562 C 62.113281 4.855469 62.304688 4.820312 62.523438 4.792969 C 62.800781 4.734375 63.210938 4.675781 63.550781 4.042969 L 63.984375 3.292969 C 64.164062 2.980469 64.296875 2.957031 64.515625 2.917969 C 64.769531 2.859375 65.105469 2.796875 65.347656 2.363281 L 65.820312 1.550781 C 66.023438 1.1875 66.058594 0.8125 65.878906 0.5 Z M 47.710938 2.675781 L 47.710938 7.347656 L 18.277344 7.347656 L 18.277344 2.675781 Z M 37.160156 14.222656 C 36.445312 14.222656 36.191406 13.605469 36.011719 13.097656 C 35.792969 12.542969 34.648438 8.863281 34.308594 7.871094 L 35.769531 7.871094 C 36.542969 9.210938 37.980469 11.574219 38.59375 12.566406 C 38.714844 12.746094 39.03125 13.28125 39.585938 13.617188 C 37.339844 14.222656 37.402344 14.222656 37.160156 14.222656 Z M 40.597656 13.292969 C 39.789062 13.292969 39.355469 12.675781 39.113281 12.261719 C 38.582031 11.425781 37.375 9.394531 36.472656 7.871094 L 38.089844 7.871094 C 39.113281 8.957031 41.25 11.234375 42.097656 12.105469 C 42.21875 12.226562 42.496094 12.503906 42.90625 12.757812 C 40.914062 13.253906 40.914062 13.292969 40.597656 13.292969 Z M 43.894531 12.382812 C 43.28125 12.382812 42.808594 11.949219 42.496094 11.632812 C 41.746094 10.882812 39.984375 9.019531 38.898438 7.832031 L 40.671875 7.832031 C 41.792969 8.667969 44.367188 10.566406 45.390625 11.257812 C 45.707031 11.464844 46.03125 11.632812 46.382812 11.753906 C 44.078125 12.382812 44.136719 12.382812 43.894531 12.382812 Z M 48.046875 10.640625 C 47.769531 11.078125 47.554688 11.292969 47.058594 11.292969 C 46.585938 11.292969 46.128906 11.078125 45.71875 10.796875 C 44.886719 10.207031 42.929688 8.800781 41.6875 7.871094 L 43.796875 7.871094 C 46.371094 9.140625 47.457031 9.734375 48.179688 9.949219 L 48.554688 10.046875 C 48.339844 10.207031 48.207031 10.421875 48.046875 10.640625 Z M 48.832031 9.429688 C 48.242188 9.429688 47.46875 9.03125 45.101562 7.84375 L 47.394531 7.84375 L 50.621094 8.65625 C 50.835938 8.714844 51.054688 8.753906 51.234375 8.8125 C 49.425781 9.371094 49.136719 9.429688 48.832031 9.429688 Z M 55.097656 7.6875 C 53.203125 8.246094 52.890625 8.378906 52.371094 8.378906 C 51.996094 8.378906 51.539062 8.316406 50.753906 8.097656 L 48.207031 7.445312 L 48.207031 6.539062 Z M 57.089844 7.128906 C 56.476562 7.289062 55.90625 7.226562 55.039062 7.070312 L 48.265625 5.945312 L 48.265625 5.230469 L 59.347656 6.476562 Z M 61.242188 5.050781 C 61.148438 5.207031 61.0625 5.363281 60.964844 5.484375 C 60.589844 6.015625 60.351562 5.980469 59.167969 5.859375 L 48.207031 4.613281 L 48.207031 3.921875 L 60.84375 4.675781 C 60.941406 4.675781 61.183594 4.710938 61.460938 4.710938 C 61.402344 4.792969 61.304688 4.914062 61.242188 5.050781 Z M 63.390625 2.957031 C 63.390625 2.957031 63.140625 3.355469 63.054688 3.574219 C 62.679688 4.164062 62.5 4.164062 61.4375 4.070312 L 48.242188 3.292969 L 48.242188 2.738281 L 63.550781 2.738281 C 63.488281 2.835938 63.453125 2.894531 63.390625 2.957031 Z M 65.289062 1.210938 L 64.949219 1.804688 C 64.695312 2.179688 64.613281 2.179688 63.804688 2.179688 L 36.3125 2.179688 C 36.589844 1.839844 36.6875 1.492188 37.003906 1.1875 C 37.53125 0.65625 37.96875 0.65625 38.367188 0.65625 L 64.972656 0.65625 C 65.15625 0.65625 65.289062 0.714844 65.347656 0.8125 C 65.371094 0.910156 65.371094 1.054688 65.289062 1.210938 Z M 30.207031 14.066406 C 30.324219 13.910156 30.421875 13.691406 30.578125 13.316406 C 30.796875 12.757812 32.003906 8.921875 32.355469 7.871094 L 33.683594 7.871094 C 34.019531 8.957031 35.238281 12.757812 35.457031 13.316406 C 35.578125 13.691406 35.710938 13.910156 35.832031 14.066406 C 35.792969 14.03125 35.734375 14.003906 35.710938 13.96875 L 34.007812 12.347656 C 33.730469 12.09375 33.453125 11.851562 33.042969 11.851562 C 32.644531 11.851562 32.328125 12.105469 32.078125 12.347656 L 30.375 13.96875 C 30.300781 14.003906 30.230469 14.042969 30.207031 14.066406 Z M 26.414062 13.605469 C 26.96875 13.265625 27.320312 12.734375 27.40625 12.554688 C 28.019531 11.585938 29.457031 9.1875 30.230469 7.855469 L 31.691406 7.855469 C 31.375 8.847656 30.207031 12.527344 29.988281 13.085938 C 29.808594 13.582031 29.554688 14.210938 28.839844 14.210938 C 28.585938 14.222656 28.648438 14.222656 26.414062 13.605469 Z M 23.128906 12.734375 C 23.527344 12.515625 23.820312 12.238281 23.941406 12.082031 C 24.773438 11.246094 26.945312 8.933594 27.949219 7.84375 L 29.566406 7.84375 C 28.660156 9.371094 27.453125 11.390625 26.921875 12.238281 C 26.667969 12.636719 26.234375 13.265625 25.4375 13.265625 C 25.109375 13.292969 25.085938 13.253906 23.128906 12.734375 Z M 19.652344 11.765625 C 20.089844 11.644531 20.460938 11.390625 20.644531 11.269531 C 21.671875 10.582031 24.242188 8.691406 25.363281 7.84375 L 27.140625 7.84375 C 26.050781 9.03125 24.277344 10.894531 23.542969 11.644531 C 23.226562 11.960938 22.792969 12.394531 22.140625 12.394531 C 21.886719 12.382812 21.910156 12.382812 19.652344 11.765625 Z M 17.480469 10.023438 C 17.601562 9.988281 17.734375 9.988281 17.855469 9.925781 C 18.605469 9.707031 19.691406 9.152344 22.238281 7.84375 L 24.351562 7.84375 C 23.058594 8.777344 21.140625 10.179688 20.304688 10.773438 C 19.929688 11.050781 19.4375 11.269531 18.964844 11.269531 C 18.472656 11.269531 18.253906 11.050781 17.976562 10.617188 C 17.820312 10.421875 17.660156 10.207031 17.480469 10.023438 Z M 14.777344 8.835938 C 14.957031 8.800781 15.175781 8.742188 15.390625 8.679688 L 18.617188 7.871094 L 20.910156 7.871094 C 18.554688 9.054688 17.769531 9.453125 17.179688 9.453125 C 16.851562 9.429688 16.574219 9.371094 14.777344 8.835938 Z M 17.78125 6.539062 L 17.78125 7.445312 L 15.234375 8.097656 C 14.460938 8.28125 13.992188 8.378906 13.617188 8.378906 C 13.085938 8.378906 12.785156 8.257812 10.890625 7.6875 Z M 6.699219 6.476562 L 17.78125 5.230469 L 17.78125 5.945312 L 11.011719 7.070312 C 10.105469 7.226562 9.550781 7.289062 8.957031 7.128906 Z M 4.527344 4.699219 C 4.78125 4.660156 5.058594 4.660156 5.144531 4.660156 L 17.78125 3.910156 L 17.78125 4.601562 L 6.832031 5.847656 C 5.648438 5.96875 5.410156 6.003906 5.035156 5.472656 C 4.9375 5.351562 4.851562 5.195312 4.757812 5.035156 C 4.683594 4.914062 4.625 4.792969 4.527344 4.699219 Z M 2.488281 2.773438 L 17.792969 2.773438 L 17.792969 3.332031 L 4.585938 4.105469 C 3.539062 4.164062 3.34375 4.203125 2.96875 3.609375 C 2.847656 3.402344 2.742188 3.195312 2.632812 2.992188 C 2.570312 2.894531 2.511719 2.835938 2.488281 2.773438 Z M 0.675781 0.8125 C 0.738281 0.714844 0.855469 0.65625 1.050781 0.65625 L 27.65625 0.65625 C 28.054688 0.65625 28.527344 0.65625 29.023438 1.1875 C 29.335938 1.503906 29.421875 1.839844 29.710938 2.179688 L 2.234375 2.179688 C 1.425781 2.179688 1.328125 2.179688 1.085938 1.804688 L 0.75 1.210938 C 0.652344 1.054688 0.617188 0.910156 0.675781 0.8125 Z M 0.675781 0.8125 "/>
</g>
</svg>

<svg xmlns="http://www.w3.org/2000/svg" width="64" height="15" viewBox="0 0 66 15"><path style="stroke:none;fill-rule:nonzero;fill:#00594f;fill-opacity:1" d="M18.059 2.457h29.843v5.05H18.06Zm0 0"/><path style="stroke:none;fill-rule:nonzero;fill:#fff;fill-opacity:1" d="M20.016 5.387h.773l-.398-1.028Zm-.797.992 1.148-2.711h.313l1.148 2.71h-.594l-.254-.687h-1.023l-.277.688Zm2.691-.121-.035-.496c.254.218.531.34.809.34a.7.7 0 0 0 .375-.098.32.32 0 0 0 .058-.434c-.012-.011-.012-.023-.023-.023-.098-.121-.278-.184-.688-.375-.375-.184-.554-.438-.554-.777 0-.22.097-.399.253-.555.336-.317.93-.184.989-.184.12.04.218.063.316.098l.035.473a1.1 1.1 0 0 0-.34-.184c-.375-.121-.77-.035-.77.281 0 .156.095.254.313.375.47.254.711.336.868.555.218.254.218.777-.121 1.031a1.2 1.2 0 0 1-.711.215 3 3 0 0 1-.774-.242m2.586.12V3.985c-.219 0-.473.036-.808.059l.035-.398h2.074l.039.398c-.434-.059-.688-.059-.809-.059v2.36h-.53Zm2.692-.276c.433 0 .808-.34.808-1.09 0-.059 0-.653-.375-.969-.121-.094-.254-.121-.433-.121-.555 0-.81.535-.81 1.09.036.75.411 1.09.81 1.09m0 .34c-.81 0-1.364-.594-1.364-1.407 0-.832.555-1.402 1.363-1.402.81 0 1.364.558 1.364 1.402.012.813-.555 1.406-1.363 1.406m1.808-.063v-2.71h.281l1.618 1.84v-1.84h.375v2.71h-.282L29.371 4.54v1.84Zm3.719 0 .316-2.711h.278l.964 1.902.93-1.902h.277l.313 2.71h-.555L35.082 4.7l-.746 1.559h-.254L33.309 4.7l-.157 1.645h-.437Zm4.07-.992h.774l-.399-1.028Zm-.808.992 1.144-2.711h.316l1.145 2.71h-.59l-.254-.687h-1.027l-.277.688Zm3.32-1.488c.058 0 .156.039.215.039.437 0 .558-.254.558-.473 0-.34-.254-.473-.558-.473h-.18v.907ZM38.8 6.418V3.707c.156-.039.34-.039.617-.039.254 0 .469.039.613.098.254.097.555.277.555.691a.9.9 0 0 1-.156.473c-.094.12-.254.215-.434.277l.965 1.211h-.613l-.836-1.152h-.18v1.152Zm2.8-.04V3.985c-.218 0-.472.036-.808.059l.035-.398h2.078l.035.398c-.433-.059-.687-.059-.808-.059v2.36h-.531Zm1.669-2.71h.527v2.71h-.527Zm1.058 2.71v-2.71h.281l1.618 1.84v-1.84h.37v2.71h-.277L44.703 4.54v1.84Zm0 0"/><path style="stroke:none;fill-rule:nonzero;fill:#000;fill-opacity:1" d="M65.879.5c-.18-.316-.531-.5-.93-.5H38.344c-.438 0-1.125 0-1.836.715a2.5 2.5 0 0 0-.473.656c-.215.399-.375.688-1.12.688h-3.876c-.715 0-.906-.278-1.125-.688a3 3 0 0 0-.469-.656C28.746 0 28.055 0 27.621 0H1.051C.617 0 .277.184.12.5c-.18.313-.156.71.059 1.05l.472.813c.254.434.59.496.832.555.22.039.375.062.532.375l.433.75c.34.617.715.691.992.75.215.039.434.062.711.559.278.496.688 1.246 1.703 1.562.098.035 9.899 2.89 9.934 2.89 1.027.34 1.305.716 1.621 1.188.18.278.711 1.028 1.953 1.367l9.442 2.555c1.027.277 1.64-.219 1.957-.496l1.699-1.621c.254-.219.375-.317.531-.317.16 0 .281.098.531.317l1.704 1.621c.316.254.93.75 1.957.496l9.441-2.555c1.266-.34 1.773-1.09 1.953-1.367.317-.472.594-.87 1.617-1.187 0 0 9.817-2.867 9.938-2.89.988-.317 1.426-1.056 1.703-1.563.277-.497.469-.532.687-.559.278-.059.688-.117 1.028-.75l.433-.75c.18-.313.313-.336.532-.375.254-.059.59-.121.832-.555l.472-.812c.203-.363.239-.738.059-1.051M47.71 2.676v4.672H18.277V2.676ZM37.16 14.223c-.716 0-.97-.618-1.15-1.125-.218-.555-1.363-4.235-1.702-5.227h1.46c.774 1.34 2.211 3.703 2.825 4.695.12.18.437.715.992 1.051-2.246.606-2.184.606-2.426.606m3.437-.93c-.809 0-1.243-.617-1.485-1.031-.531-.836-1.738-2.867-2.64-4.39h1.617c1.023 1.085 3.16 3.362 4.008 4.233.12.122.398.399.808.653-1.992.496-1.992.535-2.308.535m3.297-.91c-.614 0-1.086-.434-1.399-.75-.75-.75-2.512-2.613-3.598-3.801h1.774c1.121.836 3.695 2.734 4.719 3.426.316.207.64.375.992.496-2.305.629-2.246.629-2.488.629m4.152-1.742c-.277.437-.492.652-.988.652-.473 0-.93-.215-1.34-.496-.832-.59-2.79-1.996-4.032-2.926h2.11c2.574 1.27 3.66 1.863 4.383 2.078l.375.098c-.215.16-.348.375-.508.594m.785-1.211c-.59 0-1.363-.399-3.73-1.586h2.293l3.226.812c.215.059.434.098.613.156-1.808.56-2.097.618-2.402.618m6.266-1.742c-1.895.558-2.207.69-2.727.69-.375 0-.832-.062-1.617-.28l-2.547-.653V6.54Zm1.992-.56c-.613.161-1.184.099-2.05-.058l-6.774-1.125V5.23l11.082 1.247Zm4.152-2.077c-.094.156-.18.312-.277.433-.375.532-.613.496-1.797.375L48.207 4.613v-.691l12.637.754c.097 0 .34.035.617.035-.059.082-.156.203-.219.34m2.149-2.094s-.25.398-.336.617c-.375.59-.555.59-1.617.496l-13.196-.777v-.555h15.309c-.063.098-.098.157-.16.219m1.898-1.746-.34.594c-.254.375-.336.375-1.144.375H36.313c.277-.34.374-.688.69-.993.528-.53.966-.53 1.364-.53h26.606c.183 0 .316.058.375.155a.57.57 0 0 1-.059.399M30.207 14.066c.117-.156.215-.375.371-.75.219-.558 1.426-4.394 1.777-5.445h1.329c.336 1.086 1.554 4.887 1.773 5.445.121.375.254.594.375.75-.039-.035-.098-.062-.121-.097l-1.703-1.621c-.278-.254-.555-.496-.965-.496-.398 0-.715.253-.965.496l-1.703 1.62a.8.8 0 0 0-.168.098m-3.793-.46a2.9 2.9 0 0 0 .992-1.051c.614-.97 2.051-3.367 2.824-4.7h1.461c-.316.993-1.484 4.672-1.703 5.23-.18.497-.433 1.126-1.148 1.126-.254.012-.192.012-2.426-.606m-3.285-.872c.398-.218.691-.496.812-.652.832-.836 3.004-3.148 4.008-4.238h1.617a297 297 0 0 1-2.644 4.394c-.254.399-.688 1.028-1.485 1.028-.328.027-.351-.012-2.308-.532m-3.477-.968c.438-.121.809-.375.993-.496 1.027-.688 3.597-2.579 4.718-3.426h1.778a213 213 0 0 1-3.598 3.8c-.316.317-.75.75-1.402.75-.254-.011-.23-.011-2.489-.628m-2.172-1.743c.122-.035.254-.035.375-.097.75-.219 1.836-.774 4.383-2.082h2.114c-1.293.933-3.211 2.336-4.047 2.93-.375.277-.867.496-1.34.496-.492 0-.711-.22-.988-.653-.157-.195-.317-.41-.497-.594m-2.703-1.187a8 8 0 0 0 .614-.156l3.226-.809h2.293c-2.355 1.184-3.14 1.582-3.73 1.582-.328-.023-.606-.082-2.403-.617m3.004-2.297v.906l-2.547.653c-.773.183-1.242.28-1.617.28-.531 0-.832-.12-2.726-.69ZM6.7 6.477 17.781 5.23v.715l-6.77 1.125c-.906.157-1.46.22-2.054.059ZM4.527 4.699c.254-.039.532-.039.618-.039l12.636-.75v.692L6.832 5.848c-1.184.12-1.422.156-1.797-.375-.098-.121-.183-.278-.277-.438-.074-.12-.133-.242-.23-.336m-2.04-1.926h15.305v.559l-13.207.773c-1.047.06-1.242.098-1.617-.496-.121-.207-.227-.414-.336-.617-.063-.097-.121-.156-.145-.219M.676.813C.738.715.856.656 1.05.656h26.605c.399 0 .871 0 1.367.532.313.316.399.652.688.992H2.234c-.808 0-.906 0-1.148-.375L.75 1.21C.652 1.055.617.91.676.812m0 0"/></svg>
